X:1
T:Title
%%score { ( 1 4 ) | ( 2 3 ) }
L:1/8
Q:1/4=100
M:4/4
K:C
V:1 treble nm="Grand Piano"
V:4 treble 
V:2 bass 
V:3 bass 
V:1
 [Ec]2 [Ec]2 .[Ec]2 [CE]G | [Ec]2 [Fc]2 [Ec]4 | [Ge]3 [Ge] [^Fd]2 [FA]2 | d6[K:bass] z2 | %4
w: P.~P.~Bilhorn * * * *||||
 [Ec]2 [Ec]2 .[Ec]2 [CE]G | [Ec]2 [Fc]2 [Ec]4 | [Ge]3 [Ec] [Fd]2 [Ec]2 | [Ec]6 z2 | %8
w: ||||
 [Ec]3 [EG] [EG]2 [Gc]2 | [Ac]3 [FA] [FA]4 | [^Fd]3 [Fc] [FB]2 [FA]2 | z2 A2 G2 F2 | %12
w: ||||
 [CEc]3 [CGc] d2 d2 | e2 [Gc]2 A4 | G2 c2 B2 d2 | [Ec]6 z2 |] %16
w: ||||
V:2
 [C,G,]2 [C,G,]2 z G z E | [C,G,]2 [C,A,]2 [C,G,]4 | [C,C]3 [C,C] [D,A,]2 [D,D]2 | [B,F]6 z2 | %4
 [C,G,]2 [C,G,]2 z G z E | [C,G,]2 [C,A,]2 [C,G,]4 | [C,C]3 [C,G,] [G,B,]2 [C,C]2 | [C,C]6 z2 | %8
 [C,G,]3 [C,C] [C,C]2 [E,C]2 | [F,C]3 [F,C] [F,C]4 | [D,D]3 [D,D] [D,D]2 [D,C]2 | G,2 z2 z4 | %12
 C,3 E,[K:treble] [G,B,G]2 [G,B,G]2 | [CG]2[K:bass] [E,C]2 [F,CF]4 | %14
 [G,CE]2 [G,EG]2 [G,DG]2 [G,B,F]2 | [C,C]6 z2 |] %16
V:3
 z4 [C,G,]2 C,2 | x8 | x8 | G,2 z2 z4 | z4 [C,G,]2 C,2 | x8 | x8 | x8 | x8 | x8 | x8 | %11
 B,2- [F,B,-]2 [E,B,]2 D,2 | x4[K:treble] x4 | x2[K:bass] x6 | x8 | x8 |] %16
V:4
 x8 | x8 | x8 | z2[K:bass] F,2 E,2 D,2 | x8 | x8 | x8 | x8 | x8 | x8 | x8 | G4 z4 | x8 | x8 | x8 | %15
 x8 |] %16

